findly-builder/apps/searchassist/src/assets/icons/onboarding/configure.svg

<svg width="36" height="39" viewBox="0 0 36 39" fill="none" xmlns="http://www.w3.org/2000/svg">
<path d="M18.75 4.07434V10.0372C18.75 10.2566 18.582 10.4347 18.375 10.4347H17.625C17.418 10.4347 17.25 10.2566 17.25 10.0372V4.07434H18.75Z" fill="#FF784B"/>
<path d="M24.7936 7.80551L26.6731 5.81312C26.8546 5.62072 27.1486 5.62072 27.3301 5.81312L29.2096 7.80551C29.2929 7.89535 29.2329 8.04959 29.1129 8.04959H24.8881C24.7689 8.04959 24.7089 7.89535 24.7936 7.80551Z" fill="#FF784B"/>
<path d="M9 10.4347V16.3975C9 16.617 8.832 16.7951 8.625 16.7951H7.875C7.668 16.7951 7.5 16.617 7.5 16.3975V10.4347H9Z" fill="#FF784B"/>
<path d="M31.5 16V31.9009C31.5 32.3398 31.164 32.6959 30.75 32.6959H22.5V15.205H30.75C31.164 15.205 31.5 15.5611 31.5 16Z" fill="#FFBCA5"/>
<path d="M22.5 12.8198V32.696H13.5V12.8198C13.5 12.381 13.836 12.0248 14.25 12.0248H21.75C22.164 12.0248 22.5 12.381 22.5 12.8198Z" fill="#FF784B"/>
<path d="M13.5 18.3851V32.6959H5.25C4.836 32.6959 4.5 32.3398 4.5 31.9009V19.1802C4.5 18.7413 4.836 18.3851 5.25 18.3851H13.5Z" fill="#803C25"/>
<path d="M15.7936 4.62533L17.6731 2.63295C17.8546 2.44055 18.1486 2.44055 18.3301 2.63295L20.2096 4.62533C20.2929 4.71517 20.2329 4.86941 20.1129 4.86941H15.8881C15.7689 4.86941 15.7089 4.71517 15.7936 4.62533Z" fill="#FF784B"/>
<path d="M27.75 7.25452V13.2174C27.75 13.4368 27.582 13.6149 27.375 13.6149H26.625C26.418 13.6149 26.25 13.4368 26.25 13.2174V7.25452H27.75Z" fill="#FF784B"/>
<path d="M6.04358 10.9857L7.92308 8.9933C8.10458 8.8009 8.39858 8.8009 8.58008 8.9933L10.4596 10.9857C10.5428 11.0755 10.4828 11.2298 10.3628 11.2298H6.13883C6.01883 11.2298 5.95883 11.0755 6.04358 10.9857Z" fill="#FF784B"/>
</svg>

<svg width="36" height="39" fill="none" xmlns="http://www.w3.org/2000/svg"><path d="M18.75 4.074v5.963c0 .22-.168.398-.375.398h-.75c-.207 0-.375-.178-.375-.398V4.074h1.5Zm6.044 3.732 1.88-1.993a.446.446 0 0 1 .656 0l1.88 1.993c.083.09.023.244-.097.244h-4.225c-.12 0-.18-.155-.094-.244ZM9 10.435v5.963a.387.387 0 0 1-.375.397h-.75c-.207 0-.375-.178-.375-.398v-5.962H9Z" fill="#FF784B"/><path d="M31.5 16v15.9c0 .44-.336.796-.75.796H22.5V15.205h8.25c.414 0 .75.356.75.795Z" fill="#FFBCA5"/><path d="M22.5 12.82v19.876h-9V12.82c0-.439.336-.795.75-.795h7.5c.414 0 .75.356.75.795Z" fill="#FF784B"/><path d="M13.5 18.385v14.31H5.25c-.414 0-.75-.355-.75-.794V19.18c0-.44.336-.796.75-.796h8.25Z" fill="#803C25"/><path d="m15.794 4.625 1.88-1.992a.446.446 0 0 1 .656 0l1.88 1.992c.083.09.023.244-.097.244h-4.225c-.12 0-.18-.154-.094-.244Zm11.956 2.63v5.962c0 .22-.168.398-.375.398h-.75c-.207 0-.375-.178-.375-.398V7.255h1.5ZM6.044 10.986l1.88-1.993a.446.446 0 0 1 .656 0l1.88 1.993c.083.09.023.244-.097.244H6.139c-.12 0-.18-.155-.095-.244Z" fill="#FF784B"/></svg>
